X:1
T:2. Egredimini, filiae Sion
T:Alessandro Grandi (1586 - 1630)
T:2. Egredimini, filiae Sion
T:(C) Wim Looyestijn - 2016. May be freely copied for non-commercial use.
T:(C) Wim Looyestijn - 2016. May be freely copied for non-commercial use.
T:(C) Wim Looyestijn - 2016. May be freely copied for non-commercial use.
T:(C) Wim Looyestijn - 2016. May be freely copied for non-commercial use.
T:(C) Wim Looyestijn - 2016. May be freely copied for non-commercial use.
T:(C) Wim Looyestijn - 2016. May be freely copied for non-commercial use.
T:(C) Wim Looyestijn - 2016. May be freely copied for non-commercial use.
T:(C) Wim Looyestijn - 2016. May be freely copied for non-commercial use.
T:(C) Wim Looyestijn - 2016. May be freely copied for non-commercial use.
T:(C) Wim Looyestijn - 2016. May be freely copied for non-commercial use.
C:Alessandro Grandi
C:(1586 - 1630)
Z:(C) Wim Looyestijn - 2016. May be freely copied for non-commercial use.
%%score 1 [ ( 2 3 4 ) 5 ]
L:1/8
Q:1/4=100
M:4/4
K:F
V:1 treble nm="MusicXML Part"
V:2 treble nm="MusicXML Part"
V:3 treble 
V:4 treble 
V:5 bass nm="MusicXML Part"
V:1
"^Moderato" G6 G2 | B3 B B4 | z2 B4 B2 | d3 d d4 | z2 G4 G^F | A4 A4 | d6 d2 | c2 cB A3 A | G8 | %9
w: E- gre-|di- mi- ni,|e- gre-|di- mi- ni,|fi- li- ae|Si- on,|spon- sae|De- i al- tis- si-|mi.|
[M:3/4][Q:1/4=150]"^Allegro" G4 A2 | B4 B2 | A4 B2 | c4 c2 | A4 A2 | G4 G2 F2 E3 E | D6 | A4 A2 | %17
w: Vos- que|om- nes,|vos- que|om- nes,|fe- sti-|nan- ter a vir- tu-|te,|fe- si-|
 G4 G2 F2 E3 E | D6 |[M:4/4][Q:1/4=100]"^Moderato" d6 d2 | c4 B4 | A6 A2 | G8 | z2 GA BAAG | %24
w: nan- ter a vir- tu-|te,|fi- li-|ae Je-|ru- sa-|lem.|Et vi- de- te spon- sum|
 A4 A4 | z2 Bc dccB | c4 c4 | A3 A AGGF | G4 G2 E2 | FGAB G4 | F4 z2 ^F2 | GABc A4 | G8 | %33
w: Chri- stum,|et vi- de- te spon- sum|Chri- stum|can- di- cum- et ru- bi-|cun- dum ex|mi- li- bus e- le-|ctum, ex|mi- li- bus e- le-|ctum,|
 z2 G2 G3 ^F | A3 A A4 |[M:3/4][Q:1/4=150]"^Allegro" A2 A2 B2 | c4 d2 | c2 cd _e2 d2 c4 | B6 | %39
w: in cu- jus|tha- la- mo|sanc- to- rum|ca- nit|nu- me- rus an- ge- lo-|rum,|
 d2 c2 B2 | c4 A2 | B3 B c2 | d4 B2 | c2 c2 A2 | B3 c B2 | A4 A2 | G6 | G4 ^F2 | A4 A2 | A3 A Bc | %50
w: ex- ul- tat|cho- rus|om- ni- um|su- per-|no- rum coe-|le- sti- um|ci- vi-|um,|ac vir-|tu- tum|sa- ne di- ver-|
 d2 B2 d2 | c3 B A2 B2 A3 G | G4 d2 | c3 B A2 B2 A3 A |[M:4/4][Q:1/4=100]"^Moderato" G8 | %55
w: ta- tur psal-|len- ti- um ex- er- ci-|tus, psal-|len- ti- um ex- er- ci-|tus.|
 z2 GG G3 G | G4 z GFE | E4 E4 |[M:3/4][Q:1/4=150]"^Allegro" G4 c2 | B4 G2 | A3 A A2 | A4 d2 | %62
w: Mo- di lo- qui-|tur cu- i- que|ve- strum:|sur- ge,|sur- ge|pro- pe- ra,|sur- ge,|
 c4 A2 | =B3 B B2 | d2 _e2 c2 | d2 d2 d2 | _e4 c2 | d2 d2 d2 | _e4 c2 | d2 d2 B2 | ABcB A2 | %71
w: sur- ge,|pro- pe- ra,|a- mi- ca|me- a, co-|lum- ba|me- a, for-|mo- sa|me- a, et|ve- * * * *|
 G4 B2 | ABcB A2 |[M:4/4][Q:1/4=100]"^Moderato" G8 | z GGG G2 G^F | A4 A4 | z2 BB B2 BA | c3 c c4 | %78
w: ni, et|ve- * * * *|ni.|In fo- ra- mi- ni- bus|pe- trae,|in ca- ver- na ma-|ce- ri- ae|
[M:3/4][Q:1/4=150]"^Allegro" c2 c2 B2 | A4 G2 | G3 F G2 | A4 A2 | d2 d2 c2 | B4 A2 | A3 G A2 | %85
w: o- sten- de|mi- hi|fa- ci- em|tu- am,|o- sten- de|mi- hi|fa- ci- em|
 B4 =B2 | G2 F2 E2 | F2 G2 F2 | E3 D E2 | F4 ^F2 | d2 c2 B2 | c2 B2 A2 | B2 c2 B2 | A3 G A2 | %94
w: tu- am,|so- net vox|tu- a in|au- ri- bus|me- is,|so- net vox|tu- a, vox|tu- a in|au- ri- bus|
[M:4/4][Q:1/4=100]"^Moderato" =B4 G4 | z2 G4 FE | F4 D4 | d6 cB | A2 B2 c4 | B4 z2 dA | %100
w: me- is.|Fa- vus di-|sti- lans|la- bi- a|tu- a spon-|sa, mel et|
 B2 A/B/c/B/ A3 G | G2 G2 z2 dA | B2 c/d/_e/d/ A3 G | G2 G2 z4 | %104
w: lac sub _ _ _ lin- gua|tu- a, mel et|lac sub _ _ _ lin- qua|tu- a.|
[M:3/4][Q:1/4=150]"^Allegro" G4 A2 | B2 G2 c2 | A3 A A2 | z2 B2 c2 | d2 B2 _e2 | c3 B A2 | %110
w: Ve- ni,|ve- ni de|Li- ba- no,|ve- ni,|ve- ni de|Li- ba- no,|
 GABA G2 | F6 | A3 A G2 F2 E3 E | D6 | d3 d c2 B2 A3 A |[M:4/4][Q:1/4=100]"^Moderato" G8 | d6 d2 | %117
w: spon _ _ _ _|sa,|ve- ni, co- ro- na- be-|ris,|ve- ni, co- ro- na- be-|ris,|ve- ni,|
 c4 B4 | A6 A2 | G16 |] %120
w: co- ro-|na- be-|ris.|
V:2
 [B,DG]8- | [B,DG]8 | [D-GB-]8 | [DGB]8 | [B,DG]8 | [A,D^F]8 | [D=FB]8 | A2 G4 ^F2 | [=B,DG]8 | %9
[M:3/4] [B,D]4 [A,D]2 | [B,D]4 [B,E]2 | [A,DF]4 [B,DG]2 | [CFA]4 [CFA]2 | [A,CF]4 [A,DF]2 | %14
 [B,DG]4 [B,D]2 D4 ^C2 | [^F,A,D]6 | [A,CF]4 [A,DF]2 | [B,DG]4 [B,DG]2 [FA]2 [EA]4 | [D^FA]6 | %19
[M:4/4] [D=FB]8 | [C_EG]4 [B,DG-]4 | G4 _F4 | [=B,DG]8 | [_B,DG]4 [B,DG]4 | [^FA]2 FG AGGA | %25
 [D=FB]8 | [CFA]8 | [A,CF]8 | [G,CE]8 | F6 E2 | [A,CF]4 [A,D^F]4 | G6 ^F2 | [B,DG]8 | [B,DG]8 | %34
 [A,D^F]8 |[M:3/4] [A,D=F]4 [B,DG]2 | [CFA]4 [DFB]2 | [CFA]4 B6 A2 | [DFB]6 | [DFB]6 | %40
 [CFA]4 [A,CF]2 | [B,_EG]4 [CEA]2 | [DFB]6 | [CFA]4 [A,CF]2 | [B,_EG]4 [CEA]2 | G4 ^F2 | [B,DG]6 | %47
 [B,DG]6 | [A,D^F]6 | [D=FA]4 [EA]2 | [DFB]6 | [CFA]6 [DG]2 [CEG]2 [A,D^F]2 | [B,DG]4 [B,DF]2 | %53
 [A,CF]4 [A,CF]2 [DG]2 [CEG]2 [A,D^F]2 |[M:4/4] [=B,DG]8 | [CE]8 | [DG]8 | [CEG]8 | %58
[M:3/4] [CEG]4 [CEA]2 | [A,DF]4 [G,CE]2 | [A,CF]6 | [D^FA]4 [DGB]2 | [CEG]4 [A,D^F]2 | %63
 [=B,DG]4 [B,DG]2 | [DGB]2 [_EGB]2 [CFA]2 | [DFB]4 [DGB]2 | [_EGB]4 [CFA]2 | [DFB]4 [DGB]2 | %68
 [_EGB]4 [CFA]2 | [DFB]4 [_EG]2 | [_EG]4 [D^F]2 | [B,G]4 [B,G]2 | [_EG]4 [D^F]2 |[M:4/4] [=B,DG]8 | %74
 [=B,DG]8 | [A,D^F]8 | [D=FB]8 | [CFA]8 |[M:3/4] [CFA]4 [B,DG]2 | [CF]4 [B,DF]2 | F4 E2 | %81
 [A,CF]4 [CFA]2 | [B,DG]4 [CF]2 | [DG]4 [CEG]2 | G4 ^F2 | [B,DG]4 [=B,D]2 | [_B,D]6 | [F,D]6 | %88
 [A,^C]6 | [F,D]4 [^F,D]2 | [B,DF]6 | [A,CF]6 | [B,_EG]4 [CEG]2 | [A,DG]4 [A,D^F]2 | %94
[M:4/4] [=B,DG]8 | G6 A2 | A4 B2 c2 | B6 c2 | c2 B4 A2 | [DFB]4 [D^FA]4 | G6 ^F2 | %101
 [B,DG]4 [A,D^F]4 | G6 ^F2 | [=B,DG]8 |[M:3/4] [B,D]4 [A,D]2 | [G,B,_E]4 [G,CE]2 | [^F,A,D]6 | %107
 [DF]4 [CF]2 | [B,DG]4 [B,_EG]2 | F2 AG F2 | [B,DF]4 [G,CE]2 | [A,CF]6 | F4 D2 D4 ^C2 | [^F,A,D]6 | %114
 =F4 EF G4 ^F2 |[M:4/4] [=B,DG]8 | [DG_B]8 | [CEA]4 [DG]4 | G6 ^F2 | [=B,DG]16 |] %120
V:3
 x8 | x8 | x8 | x8 | x8 | x8 | x8 | _E4 D4 | x8 |[M:3/4] x6 | x6 | x6 | x6 | x6 | %14
 x6 [F,A,]2 [E,A,]4 | x6 | x6 | x6 D4 ^C2 | x6 |[M:4/4] x8 | x8 | [A,D]8 | x8 | x8 | D8 | x8 | x8 | %27
 x8 | x8 | C2 [A,C]2 [G,C]4 | x8 | D2 [B,D]2 [A,D]4 | x8 | x8 | x8 |[M:3/4] x6 | x6 | %37
 x4 [_EG]2 [DF]2 [CF]4 | x6 | x6 | x6 | x6 | x6 | x6 | x6 | [A,D]6 | x6 | x6 | x6 | x6 | x6 | x12 | %52
 x6 | x12 |[M:4/4] x8 | x8 | x8 | x8 |[M:3/4] x6 | x6 | x6 | x6 | x6 | x6 | x6 | x6 | x6 | x6 | %68
 x6 | x6 | x6 | x6 | x6 |[M:4/4] x8 | x8 | x8 | x8 | x8 |[M:3/4] x6 | x6 | [G,C]6 | x6 | x6 | x6 | %84
 [A,D]6 | x6 | x6 | x6 | x6 | x6 | x6 | x6 | x6 | x6 |[M:4/4] x8 | B,2 C2 D2 E2 | F2 E2 D2 [CF]2 | %97
 D2 E2 F2 G2 | [FA]2 [DF]2 [CF]4 | x8 | [B,D]4 [A,D]4 | x8 | [B,D]4 [A,D]4 | x8 |[M:3/4] x6 | x6 | %106
 x6 | x6 | x6 | [A,C]2 CB, C2 | x6 | x6 | [A,C]4 [G,B,]2 [F,A,]2 [E,A,]4 | x6 | %114
 [B,D]4 [G,C]2 [B,D]2 [A,D]4 |[M:4/4] x8 | x8 | x8 | [CE]4 [A,D]4 | x16 |] %120
V:4
 x8 | x8 | x8 | x8 | x8 | x8 | x8 | C3 B, A,4 | x8 |[M:3/4] x6 | x6 | x6 | x6 | x6 | x12 | x6 | %16
 x6 | x12 | x6 |[M:4/4] x8 | x8 | x8 | x8 | x8 | x8 | x8 | x8 | x8 | x8 | x8 | x8 | x8 | x8 | x8 | %34
 x8 |[M:3/4] x6 | x6 | x12 | x6 | x6 | x6 | x6 | x6 | x6 | x6 | x6 | x6 | x6 | x6 | x6 | x6 | x12 | %52
 x6 | x12 |[M:4/4] x8 | x8 | x8 | x8 |[M:3/4] x6 | x6 | x6 | x6 | x6 | x6 | x6 | x6 | x6 | x6 | %68
 x6 | x6 | x6 | x6 | x6 |[M:4/4] x8 | x8 | x8 | x8 | x8 |[M:3/4] x6 | x6 | x6 | x6 | x6 | x6 | x6 | %85
 x6 | x6 | x6 | x6 | x6 | x6 | x6 | x6 | x6 |[M:4/4] x8 | x8 | x8 | x8 | x8 | x8 | x8 | x8 | x8 | %103
 x8 |[M:3/4] x6 | x6 | x6 | x6 | x6 | x6 | x6 | x6 | x12 | x6 | x12 |[M:4/4] x8 | x8 | x8 | x8 | %119
 x16 |] %120
V:5
 G,,8- | G,,8- | G,,8- | G,,8- | G,,8 | D,8 | B,,8 | C,4 D,4 | G,,8 |[M:3/4] G,4 ^F,2 | G,4 G,2 | %11
 D,4 G,2 | F,4 F,2 | F,4 D,2 | G,,4 G,,2 D,2 A,,3 A,, | D,6 | F,,4 D,2 | G,,4 G,,2 D,2 A,,3 A,, | %18
 D,6 |[M:4/4] B,,8 | C,4 G,,4 | D,8 | G,,8 | G,,8 | D,8 | B,,8 | F,,8- | F,,8 | C,8 | %29
 A,,2 F,,2 C,4 | F,,4 D,4 | B,,2 G,,2 D,4 | G,,8 | G,,8 | D,8 |[M:3/4] D,4 G,2 | F,4 B,,2 | %37
 F,4 _E,2 B,,2 F,4 | B,,6 | B,,6 | F,4 F,2 | _E,4 C,2 | B,,6 | F,6 | _E,4 C,2 | D,6 | G,,6 | G,,6 | %48
 D,6 | D,4 C,2 | B,,6 | F,6 B,,2 C,2 D,2 | G,,4 B,,2 | F,4 F,2 B,,2 C,2 D,2 |[M:4/4] G,,8 | C,8 | %56
 =B,,8 | C,8 |[M:3/4] C,4 A,,2 | B,,4 C,2 | F,,4 F,,2 | D,4 B,,2 | C,4 D,2 | G,,4 G,,2 | %64
 G,2 _E,2 F,2 | B,,4 G,2 | _E,4 F,2 | B,,4 G,2 | _E,4 F,2 | B,,4 _E,2 | C,4 D,2 | G,,4 _E,2 | %72
 C,4 D,2 |[M:4/4] G,,8 | G,,8 | D,8 | B,,8 | F,,8 |[M:3/4] F,,4 G,,2 | A,,4 B,,2 | C,6 | %81
 F,,4 F,,2 | G,,4 A,,2 | B,,4 C,2 | D,4 D,2 | G,,6 | G,,6 | D,6 | A,,4 A,,2 | D,4 D,2 | B,,6 | %91
 F,6 | _E,4 C,2 | D,4 D,2 |[M:4/4] G,,8 | G,,2 A,,2 B,,2 C,2 | D,2 C,2 B,,2 A,,2 | %97
 B,,2 C,2 D,2 E,2 | F,8 | B,,4 D,4 | G,,4 D,4 | G,,4 D,4 | G,,4 D,4 | G,,8 |[M:3/4] G,4 F,2 | %105
 _E,4 C,2 | D,6 | B,4 A,2 | G,4 _E,2 | F,2 F,,G,, A,,2 | B,,4 C,2 | F,,6 | F,,4 G,,2 D,2 A,,4 | %113
 D,6 | B,,4 C,2 G,,2 D,4 |[M:4/4] G,,8 | G,,8 | A,,4 B,,4 | C,4 D,4 | G,,16 |] %120

